icons/_assets/table_row_add_above.svg

<svg width="100" height="100" xmlns="http://www.w3.org/2000/svg"><path d="M95,55.0869565 L95,90.5652174 L6,95 L6,59.5217391 L95,55.0869565 Z M88.4558824,61.9413043 L12.5441176,65.723913 L12.5441176,88.1443478 L88.4558824,84.3617391 L88.4558824,61.9413043 Z M72.75,5 C85.0383357,5 95,14.927599 95,27.173913 C95,39.4202271 85.0383357,49.3478261 72.75,49.3478261 C60.4616643,49.3478261 50.5,39.4202271 50.5,27.173913 C50.5,14.927599 60.4616643,5 72.75,5 Z M72.7499138,14.026087 C71.2509572,14.026087 70.8074359,15.1281672 70.8074359,16.4879193 L70.8074359,25.503051 L61.7476632,26.4713717 C60.3931727,26.6256466 59.4190922,27.3191612 59.5730678,28.6698865 C59.7163391,29.9262416 60.7851103,30.3276188 62.0243251,30.3276188 L70.8074359,29.4068935 L70.8074359,37.8599068 C70.8074359,39.2196588 71.3855425,40.3217391 72.7499138,40.3217391 C74.1151085,40.3217391 74.6923916,39.2196588 74.6923916,37.8599068 L74.6923916,28.8455957 L83.7529877,27.8764544 C85.1083017,27.7221795 86.0815587,27.0286649 85.9267598,25.6779396 C85.7727842,24.3272142 84.5500375,23.8782416 83.1930768,24.0366195 L74.6923916,24.9425738 L74.6923916,16.4879193 C74.6923916,15.1281672 74.2488703,14.026087 72.7499138,14.026087 Z" fill="currentColor" fill-rule="evenodd"/></svg>

<svg width="100" height="100" xmlns="http://www.w3.org/2000/svg"><path d="M95 55.087v35.478L6 95V59.522l89-4.435zm-6.544 6.854-75.912 3.783v22.42l75.912-3.782v-22.42zM72.75 5C85.038 5 95 14.928 95 27.174c0 12.246-9.962 22.174-22.25 22.174S50.5 39.42 50.5 27.174C50.5 14.928 60.462 5 72.75 5zm0 9.026c-1.499 0-1.943 1.102-1.943 2.462v9.015l-9.06.968c-1.354.155-2.328.848-2.174 2.199.143 1.256 1.212 1.658 2.451 1.658l8.783-.921v8.453c0 1.36.579 2.462 1.943 2.462 1.365 0 1.942-1.102 1.942-2.462v-9.014l9.061-.97c1.355-.154 2.329-.847 2.174-2.198-.154-1.35-1.377-1.8-2.734-1.641l-8.5.906v-8.455c0-1.36-.444-2.462-1.943-2.462z" fill="currentColor" fill-rule="evenodd"/></svg>
